mobile/apps/auth/assets/custom-icons/icons/estateguru.svg

<svg xmlns="http://www.w3.org/2000/svg" viewBox="0 0 400 400"><path fill="#eef8fb" fill-rule="evenodd" d="M187 53.17c-5.045 1.895-10.079 6.631-60.788 57.198-45.429 45.3-55.772 56.113-58 60.632l-2.712 5.5v109l2.932 5.79c3.572 7.054 9.821 13 17.393 16.55l5.675 2.66h216l6.5-3.113c8.095-3.877 13.422-9.129 17.131-16.887l2.867-6v-107l-3.061-6.5c-2.781-5.904-7.805-11.254-54.75-58.315C247.759 84.186 222.475 59.389 220 57.58c-9.192-6.72-22.217-8.46-33-4.41m7.5 21.976C191.385 76.837 91.05 177.162 89.435 180.2 88.246 182.438 88 191.073 88 230.549c0 53.818-.105 52.991 7.097 55.873 3.501 1.401 15.287 1.578 104.955 1.578 85.038 0 101.55-.225 104.414-1.421 6.62-2.766 6.534-2.022 6.534-56.769v-49.289l-53.26-53.261C205.048 74.569 204.436 74 200.49 74.03c-2.195.017-4.89.519-5.99 1.116m2.17 30.591c-2.159.314-12.229 9.897-42.5 40.445-21.818 22.018-40.455 41.222-41.413 42.675-1.578 2.392-1.744 6.13-1.75 39.393L111 265h23l.049-32.75.049-32.75 32.801-33.238 32.801-33.238 32.65 33.038L265 199.099V265h23l-.035-36.75c-.026-26.939-.36-37.317-1.25-38.874-2.147-3.754-79.916-82.307-82.105-82.932-3.523-1.006-4.987-1.136-7.94-.707m-17.996 81.833L158 209.191v55.875l11.25-.283 11.25-.283.5-23.095.5-23.095 8.985-9.767 8.984-9.767 9.766 10.119 9.765 10.12V265h23l-.053-27.75-.052-27.75-20.514-21.5c-11.283-11.825-20.856-21.624-21.273-21.775-.418-.152-10.063 9.454-21.434 21.345"/><path fill="#244cf9" fill-rule="evenodd" d="M0 200.002v200.003l200.25-.253 200.25-.252.252-199.75L401.005 0H0v200.002m.49.498c0 110 .117 154.852.26 99.67.143-55.181.143-145.181 0-200C.607 45.352.49 90.5.49 200.5M187 53.17c-5.045 1.895-10.079 6.631-60.788 57.198-45.429 45.3-55.772 56.113-58 60.632l-2.712 5.5v109l2.932 5.79c3.572 7.054 9.821 13 17.393 16.55l5.675 2.66h216l6.5-3.113c8.095-3.877 13.422-9.129 17.131-16.887l2.867-6v-107l-3.061-6.5c-2.781-5.904-7.805-11.254-54.75-58.315C247.759 84.186 222.475 59.389 220 57.58c-9.192-6.72-22.217-8.46-33-4.41m7.5 21.976C191.385 76.837 91.05 177.162 89.435 180.2 88.246 182.438 88 191.073 88 230.549c0 53.818-.105 52.991 7.097 55.873 3.501 1.401 15.287 1.578 104.955 1.578 85.038 0 101.55-.225 104.414-1.421 6.62-2.766 6.534-2.022 6.534-56.769v-49.289l-53.26-53.261C205.048 74.569 204.436 74 200.49 74.03c-2.195.017-4.89.519-5.99 1.116m2.17 30.591c-2.159.314-12.229 9.897-42.5 40.445-21.818 22.018-40.455 41.222-41.413 42.675-1.578 2.392-1.744 6.13-1.75 39.393L111 265h23l.049-32.75.049-32.75 32.801-33.238 32.801-33.238 32.65 33.038L265 199.099V265h23l-.035-36.75c-.026-26.939-.36-37.317-1.25-38.874-2.147-3.754-79.916-82.307-82.105-82.932-3.523-1.006-4.987-1.136-7.94-.707m-17.996 81.833L158 209.191v55.875l11.25-.283 11.25-.283.5-23.095.5-23.095 8.985-9.767 8.984-9.767 9.766 10.119 9.765 10.12V265h23l-.053-27.75-.052-27.75-20.514-21.5c-11.283-11.825-20.856-21.624-21.273-21.775-.418-.152-10.063 9.454-21.434 21.345"/></svg>

<svg xmlns="http://www.w3.org/2000/svg" width="400" height="400" viewBox="0 0 400 400" version="1.1"><path d="M 187 53.170 C 181.955 55.065, 176.921 59.801, 126.212 110.368 C 80.783 155.668, 70.440 166.481, 68.212 171 L 65.500 176.500 65.500 231 L 65.500 285.500 68.432 291.290 C 72.004 298.344, 78.253 304.290, 85.825 307.840 L 91.500 310.500 199.500 310.500 L 307.500 310.500 314 307.387 C 322.095 303.510, 327.422 298.258, 331.131 290.500 L 333.998 284.500 333.998 231 L 333.998 177.500 330.937 171 C 328.156 165.096, 323.132 159.746, 276.187 112.685 C 247.759 84.186, 222.475 59.389, 220 57.580 C 210.808 50.860, 197.783 49.120, 187 53.170 M 194.500 75.146 C 191.385 76.837, 91.050 177.162, 89.435 180.200 C 88.246 182.438, 88 191.073, 88 230.549 C 88 284.367, 87.895 283.540, 95.097 286.422 C 98.598 287.823, 110.384 288, 200.052 288 C 285.090 288, 301.602 287.775, 304.466 286.579 C 311.086 283.813, 311 284.557, 311 229.810 L 311 180.521 257.740 127.260 C 205.048 74.569, 204.436 74, 200.490 74.030 C 198.295 74.047, 195.600 74.549, 194.500 75.146 M 196.670 105.737 C 194.511 106.051, 184.441 115.634, 154.170 146.182 C 132.352 168.200, 113.715 187.404, 112.757 188.857 C 111.179 191.249, 111.013 194.987, 111.007 228.250 L 111 265 122.500 265 L 134 265 134.049 232.250 L 134.098 199.500 166.899 166.262 L 199.700 133.024 232.350 166.062 L 265 199.099 265 232.050 L 265 265 276.500 265 L 288 265 287.965 228.250 C 287.939 201.311, 287.605 190.933, 286.715 189.376 C 284.568 185.622, 206.799 107.069, 204.610 106.444 C 201.087 105.438, 199.623 105.308, 196.670 105.737 M 178.674 187.570 L 158 209.191 158 237.128 L 158 265.066 169.250 264.783 L 180.500 264.500 181 241.405 L 181.500 218.310 190.485 208.543 L 199.469 198.776 209.235 208.895 L 219 219.015 219 242.008 L 219 265 230.500 265 L 242 265 241.947 237.250 L 241.895 209.500 221.381 188 C 210.098 176.175, 200.525 166.376, 200.108 166.225 C 199.690 166.073, 190.045 175.679, 178.674 187.570" stroke="none" fill="#eef8fb" fill-rule="evenodd"/><path d="M -0 200.002 L -0 400.005 200.250 399.752 L 400.500 399.500 400.752 199.750 L 401.005 0 200.502 0 L 0 0 -0 200.002 M 0.490 200.500 C 0.490 310.500, 0.607 355.352, 0.750 300.170 C 0.893 244.989, 0.893 154.989, 0.750 100.170 C 0.607 45.352, 0.490 90.500, 0.490 200.500 M 187 53.170 C 181.955 55.065, 176.921 59.801, 126.212 110.368 C 80.783 155.668, 70.440 166.481, 68.212 171 L 65.500 176.500 65.500 231 L 65.500 285.500 68.432 291.290 C 72.004 298.344, 78.253 304.290, 85.825 307.840 L 91.500 310.500 199.500 310.500 L 307.500 310.500 314 307.387 C 322.095 303.510, 327.422 298.258, 331.131 290.500 L 333.998 284.500 333.998 231 L 333.998 177.500 330.937 171 C 328.156 165.096, 323.132 159.746, 276.187 112.685 C 247.759 84.186, 222.475 59.389, 220 57.580 C 210.808 50.860, 197.783 49.120, 187 53.170 M 194.500 75.146 C 191.385 76.837, 91.050 177.162, 89.435 180.200 C 88.246 182.438, 88 191.073, 88 230.549 C 88 284.367, 87.895 283.540, 95.097 286.422 C 98.598 287.823, 110.384 288, 200.052 288 C 285.090 288, 301.602 287.775, 304.466 286.579 C 311.086 283.813, 311 284.557, 311 229.810 L 311 180.521 257.740 127.260 C 205.048 74.569, 204.436 74, 200.490 74.030 C 198.295 74.047, 195.600 74.549, 194.500 75.146 M 196.670 105.737 C 194.511 106.051, 184.441 115.634, 154.170 146.182 C 132.352 168.200, 113.715 187.404, 112.757 188.857 C 111.179 191.249, 111.013 194.987, 111.007 228.250 L 111 265 122.500 265 L 134 265 134.049 232.250 L 134.098 199.500 166.899 166.262 L 199.700 133.024 232.350 166.062 L 265 199.099 265 232.050 L 265 265 276.500 265 L 288 265 287.965 228.250 C 287.939 201.311, 287.605 190.933, 286.715 189.376 C 284.568 185.622, 206.799 107.069, 204.610 106.444 C 201.087 105.438, 199.623 105.308, 196.670 105.737 M 178.674 187.570 L 158 209.191 158 237.128 L 158 265.066 169.250 264.783 L 180.500 264.500 181 241.405 L 181.500 218.310 190.485 208.543 L 199.469 198.776 209.235 208.895 L 219 219.015 219 242.008 L 219 265 230.500 265 L 242 265 241.947 237.250 L 241.895 209.500 221.381 188 C 210.098 176.175, 200.525 166.376, 200.108 166.225 C 199.690 166.073, 190.045 175.679, 178.674 187.570" stroke="none" fill="#244cf9" fill-rule="evenodd"/></svg>
